!!!COM: Bach, Johann Sebastian
!!!OPR: Suite No. 1 in G Major
!!!OTL: Allemande
!!!OPS: BWV 1007
!!!ONM: 2
**kern
*staff1
*clefF4
*k[f#]
*G:
*M4/4
*met(c)
16B/
=1
*^
*	*^
4GG/	4D/	[4B/
*	*v	*v
*v	*v
16B]LL
(16A
16G
16F#)JJ
(16GLL
16D
16E
16F#)JJ
(16GLL
16A
16B
16c)JJ
=2
(16dLL
16B
16G
16F#)JJ
(16GLL
16E
16D
16C)JJ
(16BB\LL
16C
16D
16E)JJ
(16F#LL
16G
16A
16B)JJ
=3
(16cLL
16A
16G
16F#)JJ
16GLL
16E
16F#
16GJJ
(16AALL
16D
16F#
16G)JJ
16ALL
16B
16c
16AJJ
=4
(16BLL
16G)
(16G
16D)JJ
(16DLL
16BB)
(16BB
16GGJJ)
8.GGL
16BJ
16cLL
16B
16A
16GJJ
=5
(16ALL
16B
16c)
16AJJ
(16GLL
16F#
16G)
16AJJ
!!LO:TX:a:bi:t=(tr)
8.D#L
16cJ
16BLL
16A
16G
16F#JJ
=6
(16GLL
16E)
(16E
16BB)JJ
(16BBLL
16GG)
(16GG
16EE)JJ
8.EEL
16BBJ
16ELL
16G
16F#
16AJJ
=7
(16GLL
16F#
16E)
16F#JJ
16GLL
16c#
(16G
16F#JJ
16G)LL
16c#
(16E
16F#JJ
16G)LL
16E
16AA
16GJJ
=8
8F#L
16DL
16EJJ
16F#LL
16D
16G
16EJJ
16F#LL
16D
16F#
16GJJ
16ALL
16B
16cn
16AJJ
=9
(16BLL
16D
16GG)
16DJJ
16BLL
16G
16A
16F#JJ
16GLL
16E
16G
16AJJ
16BLL
16c#
16d
16BJJ
=10
(16c#LL
16E
16GG)
16EJJ
16c#LL
16A
16B
16dJJ
16c#LL
16A
16d
16BJJ
16c#LL
16A
16e
16GJJ
=11
8.F#tL
16dJ
(16ALL
16G)
(16F#
16E)JJ
16DLL
16A
16G
16EJJ
16F#LL
16D
16A
16CnJJ
=12
8.BBtL
16GJ
(16DLL
16C)
(16BB
16AA)JJ
16GGLL
16D
16C
16AAJJ
16BBLL
16GG
16D
16FF#JJ
=13
(16EELL
16GG
16AA
16BBJJ
16C#LL
16D
16E
16F#JJ
16GLL
16A
16c#
16dJJ
16eLL
16A)J
8gJ
=14
16DLL
16g
16f#
16eJJ
16f#LL
16d
16A
16dJJ
(16DLL
16F#
16A)
16cnJJ
8.BtL
16AJ
=15
*^
*	*^
8.GG/	8.D/	8.B/L
16ryy	16ryy	16AJ
*	*v	*v
*v	*v
(16GLL
16F#
16E)
16dJJ
16c#LL
16e
16A
16GJJ
16F#LL
16D
16AA
16C#JJ
=16
8.DDL
16AAJ
16DLL
16F#
16A
16c#JJ
16dLL
16A
16F#
16DJJ
8.DD
=:|:
16A/
=17
*^
[<4D\	[>4A/
16D\]	16A/]LL
16ryy	16F#
16ryy	16G
16ryy	16AJJ
*v	*v
(>16D/LL
16E
16F#)
16GJJ
16A/LL
16F#
16D
16CJJ
=18
(16BBLL
16D
16G)
16F#JJ
16GLL
16A
16B
16cJJ
16dLL
16B
16A
16GJJ
(16FnLL
16E
16F)
16dJJ
=19
8ETL
16qqD
8CJ
16cLL
16AA
16BB
16CJJ
16DD/LL
16c\
16B
16cJJ
16dLL
16B
16c
16AJJ
=20
8G#tL
8EJ
16BLL
16D
16C
16BBJJ
16CLL
16E
16F#
16G#XJJ
16ALL
(16c
16B
16A)JJ
=21
8dL
(16BBL
16C)JJ
(16DLL
16E
16Fn)
16AAJJ
8.GG#tL
16EJ
16BLL
16d
16c
16BJJ
=22
*^
*	*^
8.AA/	8.E/	8.c/L
16ryy	16ryy	16BJ
*	*v	*v
*v	*v
16ALL
16Gn
16Fn
16EJJ
16FLL
16D
16B-
16AJJ
(16B-LL
16c
16d)
16AJJ
=23
(16G#LL
16A
16Bn)
16EJJ
16FnLL
(16D
16C
16BB)JJ
16CLL
16E
16A
16BJJ
*^
!!LO:TX:a:bi:t=(tr)
4E\	8.B/L
.	16AJ
=24	=24
*	*^
8.AA/	8.E/	8.A/L
16ryy	16ryy	16BJ
*	*v	*v
*v	*v
16cLL
16B
16c
16GJJ
(16F#LL
16G
16A)
16EJJ
16DLL
16C
16BB
16AAJJ
=25
(16GGLL
16D
16F#)
16cJJ
16BLL
16A
16G
16AJJ
16BLL
16c
16d
16eJJ
16dLL
16e
16fn
16dJJ
=26
8eL
8GJ
16CLL
16d
16c
16BJJ
(16ALL
16B
16c)
16eJJ
8.dL
16cJ
=27
8dL
8AJ
16BBLL
(16c
16B
16A)JJ
(16GLL
16F#
16E)
16GJJ
16BLL
16d
16c
16BJJ
=28
8cL
8GJ
16AALL
(16E
16F#
16G)JJ
16F#LL
(16A
16B
16c)JJ
16DLL
16C
16BB
16AAJJ
=29
(16GGLL
16D
16F#)
16AJJ
16cLL
16A
16F#
16DJJ
*^
*	*^
8.GG\L	8.D/	8.B/
*	*v	*v
*v	*v
16DJ
16ELL
16G
16A
16c#JJ
=30
16dLL
(16A
16F#
16E)JJ
16DLL
16Fn
16G
16BJJ
16cnLL
(16G
16E
16D)JJ
16CLL
16E
16A
16cJJ
=31
(16F#LL
16A
16c)
16eJJ
8.dL
16CJ
16BBLL
16G
16AA
16GGJJ
16DDLL
16AA
16G
16F#JJ
=32
16G\LL
16GG
16BB
16DJJ
16GLL
16B
16d
16f#JJ
16gLL
16d
16B
16GJJ
8.GG
=:|
*-
!!!RDF**kern: > = above
!!!RDF**kern: < = below
!!!ENC: Bryan Jacob Bell
!!!END: 19 December 2023
